X: 1
T: Iggy And Squiggy
M: 4/4
L: 1/8
R: reel
K: Dmaj
|: ag | f3e dedB | B2 dB BAFA | (3fgffe dedB | ABde feag |
(3fgffe dedB | B2 DB BAFA | (3fgffe dedB |1 BABc d2 :|2 BABc d2 fg ||
|:ad d2 AdFd | Ad d2 fefg | ad d2 AdFd | fede fe e2 |
ad d2 AdFd | Ad d2 g2 ag | (3fgffe dedB |1 BABc d2 fg :|2 BABc d2 ag ||
